frontend/public/nav-archive-on.svg

<svg width="24" height="24" viewBox="0 0 24 24" fill="none" xmlns="http://www.w3.org/2000/svg">
<path d="M4 20C3.45 20 2.97917 19.8042 2.5875 19.4125C2.19583 19.0208 2 18.55 2 18V6C2 5.45 2.19583 4.97917 2.5875 4.5875C2.97917 4.19583 3.45 4 4 4H9.175C9.44167 4 9.69583 4.05 9.9375 4.15C10.1792 4.25 10.3917 4.39167 10.575 4.575L12 6H21C21.2833 6 21.5208 6.09583 21.7125 6.2875C21.9042 6.47917 22 6.71667 22 7C22 7.28333 21.9042 7.52083 21.7125 7.7125C21.5208 7.90417 21.2833 8 21 8H11.175L9.175 6H4V18L5.975 11.425C6.10833 10.9917 6.35417 10.6458 6.7125 10.3875C7.07083 10.1292 7.46667 10 7.9 10H20.8C21.4833 10 22.0208 10.2708 22.4125 10.8125C22.8042 11.3542 22.9083 11.9417 22.725 12.575L20.925 18.575C20.7917 19.0083 20.5458 19.3542 20.1875 19.6125C19.8292 19.8708 19.4333 20 19 20H4ZM6.1 18H19L20.8 12H7.9L6.1 18Z" fill="#7F7F87"/>
</svg>

<svg fill="none" viewBox="0 0 24 24"><path fill="#7f7f87" d="M4 20q-.824 0-1.412-.587A1.93 1.93 0 0 1 2 18V6q0-.824.587-1.412A1.93 1.93 0 0 1 4 4h5.175a1.98 1.98 0 0 1 1.4.575L12 6h9q.424 0 .712.287Q22 6.576 22 7t-.288.713A.97.97 0 0 1 21 8h-9.825l-2-2H4v12l1.975-6.575q.2-.65.738-1.038A2 2 0 0 1 7.9 10h12.9q1.024 0 1.613.813.587.812.312 1.762l-1.8 6a1.95 1.95 0 0 1-.738 1.038A2 2 0 0 1 19 20zm2.1-2H19l1.8-6H7.9z"/></svg>
